findly-builder/apps/searchassist/src/assets/images/markup/list-ordered.svg

<svg width="10" height="8" viewBox="0 0 10 8" fill="none" xmlns="http://www.w3.org/2000/svg">
<path fill-rule="evenodd" clip-rule="evenodd" d="M9.09445e-06 0.5625C9.09445e-06 0.389911 0.13992 0.25 0.312509 0.25H1.00001C1.13808 0.25 1.25001 0.361929 1.25001 0.5V2.125H1.56251C1.7351 2.125 1.87501 2.26491 1.87501 2.4375C1.87501 2.61009 1.7351 2.75 1.56251 2.75H0.312509C0.13992 2.75 9.09445e-06 2.61009 9.09445e-06 2.4375C9.09445e-06 2.26491 0.13992 2.125 0.312509 2.125H0.625009V0.875H0.312509C0.13992 0.875 9.09445e-06 0.735089 9.09445e-06 0.5625ZM10 1.1875C10 1.36009 9.8601 1.5 9.68751 1.5H3.43751C3.26492 1.5 3.12501 1.36009 3.12501 1.1875C3.12501 1.01491 3.26492 0.875 3.43751 0.875H9.68751C9.8601 0.875 10 1.01491 10 1.1875ZM10 3.6875C10 3.86009 9.8601 4 9.68751 4H3.43751C3.26492 4 3.12501 3.86009 3.12501 3.6875C3.12501 3.51491 3.26492 3.375 3.43751 3.375H9.68751C9.8601 3.375 10 3.51491 10 3.6875ZM0.312509 6.1875C0.13992 6.1875 -0.00508963 6.04375 0.0513753 5.88066C0.178463 5.51358 0.527205 5.25 0.937509 5.25H1.12057C1.53723 5.25 1.87501 5.58777 1.87501 6.00444C1.87501 6.20453 1.79552 6.39643 1.65404 6.53791L1.06695 7.125H1.56251C1.7351 7.125 1.87501 7.26491 1.87501 7.4375C1.87501 7.61009 1.7351 7.75 1.56251 7.75H0.312509C0.186115 7.75 0.0721658 7.67386 0.0237968 7.55709C-0.0245723 7.44032 0.0021639 7.3059 0.0915383 7.21653L1.2121 6.09597C1.23637 6.0717 1.25001 6.03877 1.25001 6.00444C1.25001 5.93295 1.19206 5.875 1.12057 5.875H0.937509C0.875298 5.875 0.817333 5.89318 0.768636 5.92451C0.623498 6.01791 0.485098 6.1875 0.312509 6.1875ZM10 6.1875C10 6.36009 9.8601 6.5 9.68751 6.5H3.43751C3.26492 6.5 3.12501 6.36009 3.12501 6.1875C3.12501 6.01491 3.26492 5.875 3.43751 5.875H9.68751C9.8601 5.875 10 6.01491 10 6.1875Z" fill="#202124"/>
</svg>

<svg width="10" height="8" fill="none" xmlns="http://www.w3.org/2000/svg"><path fill-rule="evenodd" clip-rule="evenodd" d="M0 .563C0 .39.14.25.313.25H1a.25.25 0 0 1 .25.25v1.625h.313a.312.312 0 1 1 0 .625H.313a.312.312 0 1 1 0-.625h.312V.875H.313A.312.312 0 0 1 0 .562Zm10 .625c0 .172-.14.312-.312.312h-6.25a.312.312 0 1 1 0-.625h6.25c.172 0 .312.14.312.313Zm0 2.5C10 3.86 9.86 4 9.688 4h-6.25a.312.312 0 1 1 0-.625h6.25c.172 0 .312.14.312.313Zm-9.687 2.5c-.173 0-.318-.144-.262-.307a.938.938 0 0 1 .887-.631h.183a.754.754 0 0 1 .533 1.288l-.587.587h.496a.312.312 0 1 1 0 .625H.313a.313.313 0 0 1-.221-.533l1.12-1.121a.13.13 0 0 0-.091-.221H.938a.311.311 0 0 0-.17.05c-.145.093-.283.263-.455.263Zm9.687 0c0 .172-.14.312-.312.312h-6.25a.312.312 0 1 1 0-.625h6.25c.172 0 .312.14.312.313Z" fill="#202124"/></svg>
